X: 1
T: String Quartet in F Minor opus 20 no 5 mvt 1
C: Franz Joseph Haydn
%%abc-version 2.0
%%abcx-abcm2ps-target-version 5.9.1 (29 Sep 2008)
%%abc-creator hum2abc beta
%%abcx-conversion-date 2021/02/14 14:38:19
%%abc-copyright Copyright (c) 1994, 2000 Center for Computer Assisted Research in the Humanities
%%abc-edited-by Frances Bennion
%%abcx-initial-encoding-date 1997/04/15
%%gracespace 0 6 6
%%humdrum-veritas 959799695
%%humdrum-veritas-data 1124534597
%%linebreak <none>
%%barnumbers 0
L: 1/8
M: 4/4
N: Derived from op20n5-01.krn
Q: "Moderato"
%%staves [1 2 3 4]
V: 1
V: 2
V: 3 clef=alto
V: 4 clef=bass
K: Ab
[V:1](3:2:2F4- F/A=E F[I:setbarnb2] |
[V:2]zC CC C2 z2 |
[V:3]zA, A,A, A,2 z2 |
[V:4]zF, F,F, F,2 z2 |
[V:1](3:2:2G4- G/BD C|
[V:2]zB, B,B, B,2 z2 |
[V:3]zC CC C2 z2 |
[V:4]z=E, E,E, E,2 z2 |
[V:1](3:2:2A4- A/c=E F|
[V:2]zA, A,A, A,2 z2 |
[V:3]zC CC C2 z2 |
[V:4]zF, F,F, F,2 z2 |
[V:1]zG Bd cB/A/ GF/=E/ |
[V:2]D2 z4 B,2 |
[V:3]G,2 z4 G,2 |
[V:4]B,,2 z4 C,2 |
[V:1]F4- F/c/B/A/ G/F/=E/F/ |
[V:2]zA, A,A, A,2 z2 |
[V:3]zF, CC C2 z2 |
[V:4]zF, F,F, F,2 z2 |
[V:1]^FG (3:2:2G2-G//A/B/ c/dc/ B/|
[V:2]zD DC C2 z2 |
[V:3]zB, B,B, B,2 z2 |
[V:4]z=E, E,E, E,2 z2 |
[V:1]B/A/G/A/ (3:2:2A2-A//c/B/ A/G/F/=E/ F/|
[V:2]zC CC C2 z2 |
[V:3]zA, A,A, A,2 z2 |
[V:4]zF, F,F, F,2 z2 |
[V:1]cB (3:2:2B2-B//f/=e/ f/g/f/a/ g/|
[V:2]zF FF F2 z2 |
[V:3]zF, B,B, B,2 z2 |
[V:4]zD, D,D, D,2 z2 |
[V:1]gf (3:2:2f2-f//F/=E/ F/G/F/A/ F/|
[V:2]z=B, B,B, B,2 z2 |
[V:3]zA, A,A, A,2 z2 |
[V:4]zD, D,D, D,2 z2 |
[V:1]=Ec z=e ff z/A/G/F/ |
[V:2]z2 >G2 AA z2 |
[V:3]z2 C2 z2 =B,2 |
[V:4]z2 C,2 z2 =B,,2 |
[V:1]=Ec zg aa z/A/G/F/ |
[V:2]z2 >=e2 ff =B,2 |
[V:3]z2 C2 z2 A,2 |
[V:4]z2 C,2 z2 D,2 |
[V:1]F4 =EF EF |
[V:2]=B,4 CB, CB, |
[V:3]A,4 G,A, G,A, |
[V:4]C,8 |
[V:1]=E8 |
[V:2]C8- |
[V:3]G,8- |
[V:4]C,C, C,C, C,C, C,C, |
[V:1]E6 _G2 |
[V:2]C6 E2 |
[V:3]G,4 A,4 |
[V:4]C,C, C,C, C,C, C,C, |
[V:1]F2 f4 e2 |
[V:2]D2 C2 D2 =A,2 |
[V:3]A,2 =A,2 B,2 _G2 |
[V:4]D,D, D,D, D,D, C,C, |
[V:1]d2 c2 B2 A2- |
[V:2]B,2 E2 D2 F2 |
[V:3]F6 B,2 |
[V:4]B,,B,, C,C, D,D, =D,D, |
[V:1]A2 G/A/B/c/ d/B/G/E/ D/B,/G,/B,/ |
[V:2]B,4- B,z3 |
[V:3]D4- Dz3 |
[V:4]E,4- E,z3 |
[V:1]D/E/G/B/ dd d2 z2 |
[V:2]z2 [BE][BE] [E2B2] z2 |
[V:3]z2 G,G, G,2 z2 |
[V:4]z2 E,E, E,2 z2 |
[V:1]z3 b/g/ ed cB |
[V:2]z8 |
[V:3]z8 |
[V:4]z8 |
[V:1](3:2:2A4- A/cG A|
[V:2]zE EE E2 z2 |
[V:3]zC CC C2 z2 |
[V:4]zA, A,A, A,2 z2 |
[V:1](3:2:2e4- e/ef g|
[V:2]zE EE e4- |
[V:3]zB, B,B, B,2 z2 |
[V:4]zG, G,G, G,2 z2 |
[V:1]ac da g=B cg |
[V:2]ef2 <d2 e c2- |
[V:3]zA2 A, zG2 G, |
[V:4]F,4 E,4 |
[V:1]f=A Bf eG _Ae- |
[V:2]cd2 <B2 c A2 |
[V:3]zF2 F, zE2 E, |
[V:4]D,4 C,4 |
[V:1]ed2 c2 B2 A |
[V:2]G2 A2 F4 |
[V:3]E,4 F,2 B,2 |
[V:4]B,,2 A,,2 D,2 =D,2 |
[V:1]G/e/g/e/ g/e/g/e/ =d/f/a/f/ a/f/d/f/ |
[V:2]E2 e2 =d4 |
[V:3]B,4 A4 |
[V:4]E,E, E,E, E,E, E,E, |
[V:1]e/=d/e/f/ g/e/g/e/ d/e/f/e/ d/c/B/A/ |
[V:2]e2 G2 A4 |
[V:3]G2 B,2 =D4 |
[V:4]E,E, E,E, E,E, E,E, |
[V:1]G/A/B/c/ B/A/G/F/ E2 zE |
[V:2]G2 z6 |
[V:3]E2 z4 zE |
[V:4]E,2 z2 E,/=D,/E,/F,/ E,/_D,/C,/B,,/ |
[V:1]e2 dc B>c dc |
[V:2]zC DE F>E DE |
[V:3]c2 BA2 <A2 A |
[V:4]A,,A, B,C D>C B,C |
[V:1]B>c dc Bc de |
[V:2]F>E DE FE DC |
[V:3]A2 >A2 A2 Bc |
[V:4]D>C B,C DC B,A, |
[V:1]f3 e/d/ ce zA |
[V:2]B,2 E4 Az |
[V:3]d3 c/B/ Ac Ez |
[V:4]G,4 A,z C,z |
[V:1]Bd zG A2 ze/c/ |
[V:2]Fz Dz C2 z2 |
[V:3]Fz B,z C2 z2 |
[V:4]D,z E,z A,,2 z2 |
[V:1]B>c dc B2 z2 |
[V:2]A2 >A2 A2 z2 |
[V:3]F>E DE F2 z2 |
[V:4]D>C B,C D2 z2 |
[V:1]B>c dc B2 z2 |
[V:2]A2 >A2 A2 z2 |
[V:3]F>E DE F2 z2 |
[V:4]D>C B,C D2 z2 |
[V:1]_c2 z2 f2 z2 |
[V:2]A2 z6 |
[V:3]F2 z6 |
[V:4]=D2 z6 |
[V:1](3:2:2e4- e/=de d|
[V:2]B>_c dc B4- |
[V:3]G>A BA GA GA |
[V:4]E4- E_F EF |
[V:1](3:2:2e4- e/=de d|
[V:2]B>_c dc Bc Bc |
[V:3]G>A BA GA GA |
[V:4]E8- |
[V:1]e4 g4 |
[V:2]B/e/=d/e/ f/e/d/e/ z/e/d/e/ f/e/d/e/ |
[V:3]G4 B4 |
[V:4]EE EE DD DD |
[V:1]a4 d'4 |
[V:2]z/e/=d/e/ f/e/d/e/ z/e/d/e/ f/e/d/e/ |
[V:3]E4 B,4 |
[V:4]CC CC G,G, G,G, |
[V:1]c'/e/e d'/e/e c'/e/e d'/e/e |
[V:2]ez ez ez ez |
[V:3]Cz B,z Cz B,z |
[V:4]A,z G,z A,z G,z |
[V:1]c'/a/e'/c'/ e'/c'/e'/c'/ a[_ga] f[a=e] |
[V:2]E2 z2 A4- |
[V:3]C2 z2 >E2 F_G |
[V:4]A,2 z2 C,4 |
[V:1][=ea]f (3:2:2f2-f//d/d' c'b |
[V:2]A2 >c2 d2 z2 |
[V:3]_GF F=A, B,2 z2 |
[V:4]D,D, D,D, D,2 z2 |
[V:1]e'4 b4 |
[V:2]AA AA GG GG |
[V:3]CC CC DD DD |
[V:4]E,E, E,E, E,E, E,E, |
[V:1]a4 g4 |
[V:2]A/d/c/d/ e/d/c/d/ z/d/e/B/ d/c/B/c/ |
[V:3]C2 zA, B,C z2 |
[V:4]F,F,, zF, E,E,, zE, |
[V:1]f4 e4 |
[V:2]z/c/d/=A/ c/B/A/B/ z/B/c/G/ B/_A/G/A/ |
[V:3]z2 >F,2 G,A, zE, |
[V:4]D,D,, zD, C,C,, zC, |
[V:1]d2 c2 z/B/d/B/ AG |
[V:2]z/A/B/G/ z/G/A/E/ F2 ED |
[V:3]F,G, zE D2 CB, |
[V:4]B,,2 A,,2 D,2 E,E, |
[V:1]A2 E2 _F4 |
[V:2]C4 D4 |
[V:3]A,2 z4 B,2 |
[V:4]A,A, A,A, A,A, G,G, |
[V:1]E2 A2 _F4 |
[V:2]C4 D4 |
[V:3]C2 z4 B,2 |
[V:4]A,A, A,A, A,A, G,G, |
[V:1]E2 A2 =E4 |
[V:2]C4 D2 C2 |
[V:3]C4 B,4 |
[V:4]A,A, A,A, G,G, G,G, |
[V:1]E2 F2 _G2 C2 |
[V:2]C2 D4 E2 |
[V:3]C2 A,2 B,2 _G2 |
[V:4]A,A, F,F, E,E, A,,A,, |
[V:1](3:2:2D4- D/FC D|
[V:2]zA, A,A, A,2 z2 |
[V:3]zF, F,F, F,2 z2 |
[V:4]zD, D,D, D,2 z2 |
[V:1](3:2:2E4- E/AE _G|
[V:2]zA, A,A, A,2 z2 |
[V:3]zE, E,E, E,2 z2 |
[V:4]zC, C,C, C,2 z2 |
[V:1](3:2:2F4- F/AF E|
[V:2]zA, A,A, A,2 z2 |
[V:3]zD, D,D, D,2 z2 |
[V:4]z_C, C,C, C,2 z2 |
[V:1](3:2:2=D4- D/_cB D|
[V:2]zA, A,A, A2 z2 |
[V:3]zF, F,F, F,2 z2 |
[V:4]zB,, B,,B,, B,,2 z2 |
[V:1](3:2:2E4- E/_G=D E|
[V:2]zB, B,B, B,2 z2 |
[V:3]z_G, G,G, G,2 z2 |
[V:4]zE, E,E, E,2 z2 |
[V:1](3:2:2F4- F/A_C B,|
[V:2]zB, B,B, B,2 z2 |
[V:3]zF, F,F, F,2 z2 |
[V:4]z=D, D,D, D,2 z2 |
[V:1](3:2:2G4- G/Be G|
[V:2]zB, B,B, B2 z2 |
[V:3]zE, E,E, E,2 z2 |
[V:4]zD, D,D, D,2 z2 |
[V:1](3:2:2A4- A/cG A|
[V:2]zE EE E2 z2 |
[V:3]zC CC C2 z2 |
[V:4]zA, A,A, A,2 z2 |
[V:1](3:2:2B4- B/fe d|
[V:2]zE EE E2 z2 |
[V:3]zB, B,B, B,2 z2 |
[V:4]zG, G,G, G,2 z2 |
[V:1]c/e/a/c'/ b/a/g/a <bd <dc//d// |
[V:2]zE EE zE EE |
[V:3]zC CC zB, B,B, |
[V:4]zA, A,A, zG, G,G, |
[V:1]c/e/a/c'/ b/a/g/a <bd <dc//d// |
[V:2]zE EE zE EE |
[V:3]zC CC zB, B,B, |
[V:4]zA, A,A, zG, G,G, |
[V:1]c/e/a/c'/ b/a/g/a/ _g/a/f/a/ e/a/d/a/ |
[V:2]E2 z2 ed cB |
[V:3]C2 z6 |
[V:4]A,2 z6 |
[V:1]c_g ec A2 _G2 |
[V:2]A2 z6 |
[V:3]z4 EE DD |
[V:4]z4 CC B,B, |
[V:1]Ff f4 e2 |
[V:2]F/f/=e/f/ c/f/B/f/ =A/f/G/f/ Fc |
[V:3]CC CC CC FF |
[V:4]=A,A, A,A, A,A, A,A, |
[V:1]=d/f/b/=d'/ c'/b/=a/b/ _a/b/g/b/ f/b/e/b/ |
[V:2]=d2 z2 fe dc |
[V:3]F2 z6 |
[V:4]B,2 z6 |
[V:1]=da fd B2 A2 |
[V:2]B2 z6 |
[V:3]z4 FF EE |
[V:4]z4 =DD CC |
[V:1]Gg g4 f2 |
[V:2]G/g/^f/g/ =d/g/c/g/ =B/g/=A/g/ Gd |
[V:3]=DD DD DD GG |
[V:4]=B,B, B,B, B,B, B,B, |
[V:1]=e/g/c'/=e'/ =d'/c'/=b/c'/ _b/c'/a/c'/ g/c'/f/c'/ |
[V:2]=e2 z2 gf e=d |
[V:3]G2 z6 |
[V:4]C2 z6 |
[V:1]=eb ge c2 B2 |
[V:2]c2 z2 G4 |
[V:3]z4 C2 c2- |
[V:4]z4 =E,E, E,E, |
[V:1]Aa a4 c2 |
[V:2]F2 z6 |
[V:3]c3 B/c/ d2 E2 |
[V:4]F,F, F,F, F,F, ^F,F, |
[V:1](3:2:2g4- g/^fg f|
[V:2]=B>c =dc Bc Bc |
[V:3]=D>E FE D4- |
[V:4]G,4- G,A, G,A, |
[V:1](3:2:2g4- g/^fg f|
[V:2]=B>c =dc Bc Bc |
[V:3]D>E FE =DE DE |
[V:4]G,8- |
[V:1]g4 =b4 |
[V:2]=B/g/^f/g/ a/g/f/g/ z/g/f/g/ a/g/f/g/ |
[V:3]=D8 |
[V:4]G,G, G,G, F,F, F,F, |
[V:1]c'4 f'4 |
[V:2]z/g/^f/g/ a/g/f/g/ z/g/f/g/ a/g/f/g/ |
[V:3]C4 =D4 |
[V:4]E,E, E,E, =B,,B,, B,,B,, |
[V:1]e'/c'/f'/=d'/ g'2 >e'2 c'g |
[V:2]g2 z2 c4- |
[V:3]C=D EE EE EE |
[V:4]C,2 z6 |
[V:1]af f'2 e'2 =d'2 |
[V:2]c2 a2 g2 f2 |
[V:3]FF FF FF FF |
[V:4]z8 |
[V:1]c'4 =d'4 |
[V:2]e/g/c'/g/ c'/g/e/c/ G2 =B2 |
[V:3]GG GG GG GG |
[V:4]z8 |
[V:1]c'6 e'2 |
[V:2]cG GG GG GG |
[V:3]CE EE EE EE |
[V:4]CC CC CC CC |
[V:1]e'd'2 <d'2 d' e'b |
[V:2]GG GG GG GG |
[V:3]EE EE EE EE |
[V:4]B,B, B,B, B,B, B,B, |
[V:1]d'c' c'4 c'2 |
[V:2]AA AA EE EE |
[V:3]EE EE CC CC |
[V:4]A,A, A,A, A,A, A,A, |
[V:1]c'b2 <b2 b c'g |
[V:2]=EE EE EE EE |
[V:3]CC CC CC CC |
[V:4]G,G, G,G, G,G, G,G, |
[V:1]ba2 <a2 a gf |
[V:2]FF FF =B,4 |
[V:3]CC F,F, F,4 |
[V:4]F,F, F,F, D,4 |
[V:1]f2 =e/f/g/a/ b/g/e/d/ B/G/=E/G/ |
[V:2]B,4- B,z3 |
[V:3]G,4- G,z3 |
[V:4]C,4- C,z3 |
[V:1]B/d/=e/g/ bb b2 z2 |
[V:2]z2 gg g2 z2 |
[V:3]z2 cc c2 z2 |
[V:4]z2 =E,E, E,2 z2 |
[V:1]z3 (3b/g/=e/ c2 z(3b/g/e/ |
[V:2]z8 |
[V:3]z8 |
[V:4]z8 |
[V:1]c2 z(3b/g/=e/ cB AG |
[V:2]B2 z6 |
[V:3]G2 z6 |
[V:4]=E,2 z6 |
[V:1](3:2:2F4- F/A=E F|
[V:2]zC CC C2 z2 |
[V:3]zA, A,A, A,2 z2 |
[V:4]zF, F,F, F,2 z2 |
[V:1](3:2:2G4- G/BD C|
[V:2]zB, B,B, B,2 z2 |
[V:3]zC CC C2 z2 |
[V:4]z=E, E,E, E,2 z2 |
[V:1](3:2:2A4- A/c=E F|
[V:2]zA, A,A, A,2 z2 |
[V:3]zC CC C2 z2 |
[V:4]zF, F,F, F,2 z2 |
[V:1]zG Bd cB/A/ GF/=E/ |
[V:2]D2 z4 B,2 |
[V:3]G,2 z4 G,2 |
[V:4]B,,2 z4 C,2 |
[V:1]F4- F/A/B/c/ B/A/G/F/ |
[V:2]A,/C/=B,/C/ D/C/B,/C/ C2 z2 |
[V:3]zA, A,A, A,2 z2 |
[V:4]zF, F,F, F,2 z2 |
[V:1]G4 =E/G/B/d/ c/B/A/G/ |
[V:2]z/C/=B,/C/ D/C/B,/C/ C2 z2 |
[V:3]zB, B,B, B,2 z2 |
[V:4]z=E, E,E, E,2 z2 |
[V:1]F4 =A,/F/c/e/ d/c/B/=A/ |
[V:2]z/C/=B,/C/ D/C/B,/C/ C2 z2 |
[V:3]z=A, A,A, A,2 z2 |
[V:4]zE, E,E, E,2 z2 |
[V:1]B4 f/=e/f/e/ f/d/c/B/ |
[V:2]z/F/=E/F/ _G/F/E/F/ F2 z2 |
[V:3]zD DD D2 z2 |
[V:4]zB, B,B, B,2 z2 |
[V:1]c4- c/e/f/_g/ f/e/d/c/ |
[V:2]z/F/=E/F/ _G/F/E/F/ F2 z2 |
[V:3]zE EE E2 z2 |
[V:4]z=A, A,A, A,2 z2 |
[V:1]B4 =d/B/e/c/ f/d/e/c/ |
[V:2]z/F/=E/F/ G/F/E/F/ F2 z2 |
[V:3]z=D DD D2 z2 |
[V:4]zA, A,A, A,2 z2 |
[V:1]=B4- B/a/g/a/ g/f/=e/=d/ |
[V:2]z/F/=E/F/ G/F/E/F/ F2 z2 |
[V:3]z=D DD D2 z2 |
[V:4]zG, G,G, G,2 z2 |
[V:1]c4 =e/c/f/=d/ g/e/f/d/ |
[V:2]z/G/^F/G/ A/G/F/G/ G2 z2 |
[V:3]z=E EE E2 z2 |
[V:4]zC CC C2 z2 |
[V:1]c4 =E/c/=e/=d/ f/e/g/f/ |
[V:2]z/G/^F/G/ A/G/F/G/ G2 z2 |
[V:3]z=E EE E2 z2 |
[V:4]zB, B,B, B,2 z=E |
[V:1]a2 >b2 g3 a |
[V:2]zc2 <d2 e c2- |
[V:3]z2 F/d/d/c <BG/ E/c/c/B/ |
[V:4]FA, B,D EG, A,C |
[V:1]f2 >g2 =eg c2- |
[V:2]cd2 <B2 C A=E |
[V:3]A>F D/B/B/A/ GB AG |
[V:4]DF, G,B, C=E, F,C |
[V:1]cd2 <B2 c A2- |
[V:2]F2 >G2 E3 F |
[V:3]FA2 <B2 G A2- |
[V:4]D2 >E2 C3 D |
[V:1]AB2 <G2 A F2 |
[V:2]D2 >E2 C3 D |
[V:3]AF2 <G2 =E F2 |
[V:4]B,2 >C2 A,3 B, |
[V:1]=EB2 A2 G2 F |
[V:2]C=E GC D2 =D2 |
[V:3]GC2 F F4 |
[V:4]G,2 F,2 B,,2 =B,,2 |
[V:1]=E/G/c/G/ c/G/c/G/ F/=B/=d/B/ A/F/=D/=B,/ |
[V:2]C=E EE F4 |
[V:3]G,G, G,G, =B,4 |
[V:4]C,C, C,C, C,C, C,C, |
[V:1]C/=E/G/E/ G/E/G/E/ A,/=D/F/D/ F/D/F/D/ |
[V:2]=EE EC =B,4 |
[V:3]C2 C,2 A,4 |
[V:4]C,C, C,C, C,C, C,C, |
[V:1]G,/C/=E/C/ E/C/E/C/ G,2 zC |
[V:2]C=E EE C2 zC |
[V:3]G,G, G,G, G,2 z2 |
[V:4]C,C, C,C, C,2 z2 |
[V:1]c2 BA G>A BA |
[V:2]A2 GF2 <F2 F |
[V:3]zA, B,C D>C B,C |
[V:4]zF, G,A, B,>A, G,A, |
[V:1]G>A BA GA Bc |
[V:2]F2 >F2 F2 GA |
[V:3]D>C B,C DC B,A, |
[V:4]B,>A, G,A, B,A, G,F, |
[V:1]d3 c/B/ Ac zF |
[V:2]B3 A/G/ FA Cz |
[V:3]G,2 C4 Fz |
[V:4]=E,4 F,z A,,z |
[V:1]GB z=E F2 zc/A/ |
[V:2]Dz B,z A,2 z2 |
[V:3]Dz G,z A,2 z2 |
[V:4]B,,z C,z F,,2 z2 |
[V:1]G>A BA G2 z2 |
[V:2]D>C B,C D2 z2 |
[V:3]F2 >F2 F2 z2 |
[V:4]B,>A, G,A, B,2 z2 |
[V:1]G>A BA G2 z2 |
[V:2]D>C B,C D2 z2 |
[V:3]F2 >F2 F2 z2 |
[V:4]B,>A, G,A, B,2 z2 |
[V:1]A2 z2 =d2 z2 |
[V:2]D2 z6 |
[V:3]F2 z6 |
[V:4]=B,2 z6 |
[V:1](3:2:2c4- c/=Bc B|
[V:2]G>A BA G2 z2 |
[V:3]=E>F GF EF EF |
[V:4]C4- CD CD |
[V:1](3:2:2c4- c/=Bc B|
[V:2]G>A BA GA GA |
[V:3]=E>F GF EF EF |
[V:4]C8 |
[V:1](3:2:2c4- c/=ee e|
[V:2]G>A BA GG GG |
[V:3]=E>F GF ED DD |
[V:4]C4- CB, B,B, |
[V:1]f>g ag fz3 |
[V:2]F2 z2 >F2 FF |
[V:3]C2 z2 >C2 CC |
[V:4]A,2 z2 >A,2 A,A, |
[V:1]f/g/a/b/ a/f/g/=e/ fz3 |
[V:2]F2 z2 >F2 FF |
[V:3]D2 z2 >D2 DD |
[V:4]B,2 z2 >B,2 B,B, |
[V:1]z/f/=e/f/ g/f/a/g/ fz3 |
[V:2]A2 z2 >A2 AA |
[V:3]F2 z2 >F2 FF |
[V:4]=B,2 z2 >B,2 B,B, |
[V:1]z2 B2 >d2 cB |
[V:2]G8 |
[V:3]F4 =E4 |
[V:4]CC CC CC CC |
[V:1]=A2 A4 B2 |
[V:2]_G8- |
[V:3]E8- |
[V:4]CC CC CC B,B, |
[V:1]c2 c4 e2 |
[V:2]G2 F4 F2 |
[V:3]E6 c2 |
[V:4]=A,A, A,A, A,A, A,A, |
[V:1]d2 c2 =B4 |
[V:2]F8 |
[V:3]B2 A4 GF |
[V:4]B,B, CC D4 |
[V:1](3:2:2c4- c/=Bc B|
[V:2]G>A BA G4 |
[V:3]=E>F GF EF EF |
[V:4]C4- CD CD |
[V:1](3:2:2c4- c/=Bc B|
[V:2]G>A BA GA GA |
[V:3]=E>F GF EF EF |
[V:4]C8- |
[V:1]c4 =e4 |
[V:2]G/c/=B/c/ d/c/B/c/ z/c/B/c/ d/c/B/c/ |
[V:3]=E4 G4 |
[V:4]CC CC B,B, B,B, |
[V:1]f4 b4 |
[V:2]z/c/=B/c/ d/c/B/c/ z/c/B/c/ d/c/B/c/ |
[V:3]C4 G,4 |
[V:4]A,A, A,A, =E,E, E,E, |
[V:1]a/c/c b/c/c a/c/c b/c/c |
[V:2]cz cz cz cz |
[V:3]A,z G,z A,z G,z |
[V:4]F,z =E,z F,z E,z |
[V:1]a/f/a/f/ c'/a/c'/a/ fe dc |
[V:2]c2 z2 c4 |
[V:3]A,2 z2 FF FF |
[V:4]F,2 z2 A,,A,, A,,A,, |
[V:1]B/d/f/b/ d'2 >b2 ag |
[V:2]d2 z2 >d2 cB |
[V:3]F2 z2 G2 z2 |
[V:4]B,,2 z2 B,2 z2 |
[V:1]f4 g4 |
[V:2]A/c/f/c/ f/c/A/F/ C2 =e2 |
[V:3]A4 z2 B,2 |
[V:4]CC CC CC CC |
[V:1]f4 e4 |
[V:2]f/B/=A/B/ c/B/A/B/ z/B/c/G/ B/_A/G/A/ |
[V:3]A,2 zF GA z2 |
[V:4]DD, zD CC, zC |
[V:1]d4 c4 |
[V:2]z/A/B/F/ A/G/F/G/ z/G/A/=E/ G/F/E/F/ |
[V:3]z2 >B,2 =EF zC |
[V:4]B,B,, zB, A,A,, zA, |
[V:1]B2 A2 z/G/B/G/ F=E |
[V:2]z/F/G/=E/ z/E/F/C/ D2 CB, |
[V:3]C2 >C2 B,2 A,G, |
[V:4]G,2 F,2 B,,2 C,C, |
[V:1]F2 C2 D4 |
[V:2]A,4 B,4 |
[V:3]F,2 z4 G,2 |
[V:4]F,F, F,F, F,F, =E,E, |
[V:1]C2 F2 D4 |
[V:2]A,4 B,4 |
[V:3]A,2 z4 G,2 |
[V:4]F,F, F,F, F,F, =E,E, |
[V:1]C2 F2 _G2 C2 |
[V:2]A,6 _G2 |
[V:3]A,2 C4 E2 |
[V:4]F,F, F,F, E,E, A,,A,, |
[V:1]C2 F2 _G4 |
[V:2]A,2 C4 C2 |
[V:3]A,8- |
[V:4]F,F, F,F, E,E, E,E, |
[V:1]F>_G AG F2 z2 |
[V:2]D2 z2 >A,2 A,A, |
[V:3]A,2 z2 >F,2 F,F, |
[V:4]D,2 z2 >D,2 D,D, |
[V:1]_G>A BA G2 z2 |
[V:2]A,2 z2 >A,2 A,A, |
[V:3]E,2 z2 >E,2 E,E, |
[V:4]C,2 z2 >C,2 C,C, |
[V:1]F>_G AG F2 z2 |
[V:2]A,2 z2 >D2 DD |
[V:3]D,2 z2 >A,2 A,A, |
[V:4]_C,2 z2 >C,2 C,C, |
[V:1]_G>A BA G2 z2 |
[V:2]D2 z2 >D2 DD |
[V:3]_G,2 z2 >G,2 G,G, |
[V:4]B,,2 z2 >B,,2 B,,B,, |
[V:1]A>B _cB A2 z2 |
[V:2]D2 z2 >D2 DD |
[V:3]A,2 z2 >A,2 A,A, |
[V:4]F,,2 z2 >F,2 F,F, |
[V:1]__B8 |
[V:2]D4 __E4 |
[V:3]D4 __B,4 |
[V:4]_G,G, G,G, G,G, G,G, |
[V:1]A4 __B4- |
[V:2]__E4 D4 |
[V:3]_C4 _F4- |
[V:4]_F,F, F,F, F,F, F,F, |
[V:1]B4 A4- |
[V:2]_C8 |
[V:3]F4 D4- |
[V:4]_F,F, F,F, =F,F, F,F, |
[V:1]A4 _G4 |
[V:2]__B,4 E4 |
[V:3]D4 A,4 |
[V:4]_G,G, G,G, _C,C, C,C, |
[V:1]FF2 F2 F2 F- |
[V:2]D4 C4 |
[V:3]A,8 |
[V:4]D,D, D,D, D,D, D,D, |
[V:1]FF2 F2 F2 F |
[V:2]=B,B,2 B,2 B,2 B, |
[V:3]A,A,2 A,2 A,2 A, |
[V:4]D,D, D,D, D,D, D,D, |
[V:1]F>G AG Fc BA |
[V:2]C4- CA GF |
[V:3]A,>B, CB, A,F, G,A, |
[V:4]C,2 C,,2 z4 |
[V:1]G>A BA Gd cB |
[V:2]=E>F GF EB AG |
[V:3]B,>A, G,A, B,=E, F,G, |
[V:4]C,2 C,,2 z4 |
[V:1]A>B cB Aa gf |
[V:2]F>G AG Fc BA |
[V:3]A,>G, F,G, A,F GA |
[V:4]C,2 C,,2 z4 |
[V:1]=e>f gf ed' c'b |
[V:2]G>A BA Gb ag |
[V:3]B>c dc B=E FG |
[V:4]C,2 C,,2 z4 |
[V:1]aF z2 c/d/e/f/ g/a/b/c'/ |
[V:2]fF z6 |
[V:3]A>B cB AG FE |
[V:4]F,>G, A,G, F,E, D,C, |
[V:1]d'F z2 F/G/A/B/ c/=d/=e/f/ |
[V:2]F/B/c/=A/ Bz4 z |
[V:3]D>E FE DC B,A, |
[V:4]B,,>C, D,C, B,,A,, G,,F,, |
[V:1]gb za zg z=e |
[V:2]cg zc zB zG |
[V:3]G,z A,z Dz B,z |
[V:4]=E,,z F,,z B,,z C,z |
[V:1]fF z2 c/d/e/f/ g/a/b/c'/ |
[V:2]AF z6 |
[V:3]A>B cB AG FE |
[V:4]F,>G, A,G, F,E, D,C, |
[V:1]d'F z2 F/G/A/B/ c/=d/=e/f/ |
[V:2]F/B/c/=A/ Bz4 z |
[V:3]D>E FE DC B,A, |
[V:4]B,,>C, D,C, B,,A,, G,,F,, |
[V:1]gb za zg z=e |
[V:2]cg zc zB zG |
[V:3]G,z A,z Dz B,z |
[V:4]=E,,z F,,z B,,z C,z |
[V:1]f2 z2 [G,2=E2] z2 |
[V:2]F2 z2 C2 z2 |
[V:3]A,2 z2 C2 z2 |
[V:4]F,,2 z2 C,,2 z2 |
[V:1][A,2F2] z6 |]
[V:2]C2 z6 |]
[V:3]F,2 z6 |]
[V:4]F,,2 z6 |]

